X:15398
T:Si j'avais un bon ami
R:bourre 2 temps
C:trad.
A:Morvan
O:France
Z:Sylvain Piron
M:2/4
L:1/8
Q:1/4=120
K:Gm
G>A BG|A^FG2|Bc dB|dc A2|G>A BG|A^F G2|Bc dB|dc A2|
B>c de|dc A2|cBG2|A^F D2|B>c de|dc A2|cBGG|A^F G2|
